X:1
T:[ID 1-134]
T:[ID 1-134]
T:Bezeichnung standardisiert: Menuet [mit Trio] Menuetto Con Trio Nro 3. In dieser Quelle auch als: Men\"uet
T:Urheber unbekannt Erstbeleg: vor 1767 (Datum in der schriftlichen Quelle) Datum in der hier transkribierten schriftlichen Quelle: 1776 - 1791
C:Urheber unbekannt
C:Erstbeleg: vor 1767 (Datum in der schriftlichen Quelle)
C:Datum in der hier transkribierten schriftlichen Quelle: 1776 - 1791
L:1/8
M:3/4
K:D
V:1 treble 
V:1
 D2 d2 d2 | dfeg f2 | D2 f2 f2 | fagb a2 | b^def (3gab | a2 cB c2 | ef g2 f2 | e6 :: a4 ec | %9
 d2 cB c2 | BdcBA^G | A6 |"^O)" d2 f2 a2 | gbeg f2 |"^O)" d2 f2 a2 | gbeg f2 | b^def (3gab | %17
 a2 dc d2 | egfedc | d6 :|[M:3/4]"^Trio" !fermata!A4 FA | G2 EG F2 | f4 df | e2 ce d2 | A2 GFED | %25
 B2 c2 d2 | ef g2 f2 | e6 :: e4 ce | d2 Bd c2 | a4 fa |{a} g2 eg f2 | B2"^O)" (3gfd(3BcG | %33
 A4"^O)" (3fed(3ABF | G2 F2 E2 | D6 :| %36

